static/images/supporters/swiss.svg

<svg width="2618" height="330" fill="none" xmlns="http://www.w3.org/2000/svg"><g clip-path="url(#a)"><g clip-path="url(#b)"><path d="M0 43h244v244H0V43Z" fill="#FE0400"/><path d="M99.125 88.75h45.75v53.375h53.375v45.75h-53.375v53.375h-45.75v-53.375H45.75v-45.75h53.375V88.75Z" fill="#fff"/></g><path d="M388.172 260.643c-13.757 0-26.085-2.234-36.984-6.7-10.898-4.467-19.653-11.078-26.264-19.832-6.432-8.755-9.826-19.296-10.184-31.624h48.776c.715 6.968 3.127 12.328 7.236 16.08 4.11 3.573 9.47 5.36 16.08 5.36 6.79 0 12.15-1.519 16.08-4.556 3.931-3.216 5.896-7.594 5.896-13.132 0-4.646-1.608-8.487-4.824-11.524-3.037-3.038-6.878-5.539-11.524-7.504-4.466-1.966-10.898-4.199-19.296-6.7-12.149-3.752-22.065-7.504-29.748-11.256-7.682-3.752-14.293-9.291-19.832-16.616-5.538-7.326-8.308-16.884-8.308-28.676 0-17.51 6.343-31.178 19.028-41.004 12.686-10.006 29.212-15.008 49.58-15.008 20.726 0 37.431 5.002 50.116 15.008 12.686 9.826 19.475 23.584 20.368 41.272h-49.58c-.357-6.075-2.59-10.81-6.7-14.204-4.109-3.574-9.38-5.36-15.812-5.36-5.538 0-10.005 1.518-13.4 4.556-3.394 2.858-5.092 7.057-5.092 12.596 0 6.074 2.859 10.809 8.576 14.204 5.718 3.394 14.651 7.057 26.8 10.988 12.15 4.109 21.976 8.04 29.48 11.792 7.683 3.752 14.294 9.201 19.832 16.348 5.539 7.146 8.308 16.348 8.308 27.604 0 10.72-2.769 20.457-8.308 29.212-5.36 8.754-13.221 15.722-23.584 20.904-10.362 5.181-22.601 7.772-36.716 7.772Zm308.33-151.42-40.468 149.544h-50.652l-23.584-97.016-24.388 97.016h-50.384L466.29 109.223h45.828l21.172 106.932 25.192-106.932h48.508l25.46 106.396 20.904-106.396h43.148Zm37.376-15.544c-8.04 0-14.651-2.323-19.832-6.968-5.003-4.824-7.504-10.72-7.504-17.688 0-7.147 2.501-13.043 7.504-17.688 5.181-4.824 11.792-7.236 19.832-7.236 7.861 0 14.293 2.412 19.296 7.236 5.181 4.645 7.772 10.54 7.772 17.688 0 6.968-2.591 12.864-7.772 17.688-5.003 4.645-11.435 6.968-19.296 6.968Zm22.78 15.544v149.544H710.83V109.223h45.828Zm90.898 151.688c-13.043 0-24.656-2.234-34.84-6.7-10.184-4.467-18.224-10.542-24.12-18.224-5.896-7.862-9.202-16.616-9.916-26.264h45.292c.536 5.181 2.948 9.38 7.236 12.596 4.288 3.216 9.558 4.824 15.812 4.824 5.717 0 10.094-1.072 13.132-3.216 3.216-2.323 4.824-5.271 4.824-8.844 0-4.288-2.234-7.415-6.7-9.38-4.467-2.144-11.703-4.467-21.708-6.968-10.72-2.502-19.654-5.092-26.8-7.772-7.147-2.859-13.311-7.236-18.492-13.132-5.182-6.075-7.772-14.204-7.772-24.388 0-8.576 2.322-16.348 6.968-23.316 4.824-7.147 11.792-12.775 20.904-16.884 9.29-4.11 20.278-6.164 32.964-6.164 18.76 0 33.5 4.645 44.22 13.936 10.898 9.29 17.152 21.618 18.76 36.984h-42.344c-.715-5.182-3.038-9.291-6.968-12.328-3.752-3.038-8.755-4.556-15.008-4.556-5.36 0-9.47 1.072-12.328 3.216-2.859 1.965-4.288 4.734-4.288 8.308 0 4.288 2.233 7.504 6.7 9.648 4.645 2.144 11.792 4.288 21.44 6.432 11.077 2.858 20.1 5.717 27.068 8.576 6.968 2.68 13.042 7.146 18.224 13.4 5.36 6.074 8.129 14.293 8.308 24.656 0 8.754-2.502 16.616-7.504 23.584-4.824 6.789-11.882 12.149-21.172 16.08-9.112 3.93-19.743 5.896-31.892 5.896Zm146.292 0c-13.042 0-24.656-2.234-34.84-6.7-10.184-4.467-18.224-10.542-24.12-18.224-5.896-7.862-9.201-16.616-9.916-26.264h45.292c.536 5.181 2.948 9.38 7.236 12.596 4.288 3.216 9.559 4.824 15.812 4.824 5.718 0 10.098-1.072 13.128-3.216 3.22-2.323 4.83-5.271 4.83-8.844 0-4.288-2.24-7.415-6.7-9.38-4.47-2.144-11.704-4.467-21.71-6.968-10.72-2.502-19.653-5.092-26.8-7.772-7.146-2.859-13.31-7.236-18.492-13.132-5.181-6.075-7.772-14.204-7.772-24.388 0-8.576 2.323-16.348 6.968-23.316 4.824-7.147 11.792-12.775 20.904-16.884 9.291-4.11 20.279-6.164 32.964-6.164 18.758 0 33.498 4.645 44.218 13.936 10.9 9.29 17.15 21.618 18.76 36.984h-42.34c-.72-5.182-3.04-9.291-6.97-12.328-3.75-3.038-8.754-4.556-15.008-4.556-5.36 0-9.469 1.072-12.328 3.216-2.858 1.965-4.288 4.734-4.288 8.308 0 4.288 2.234 7.504 6.7 9.648 4.646 2.144 11.792 4.288 21.444 6.432 11.07 2.858 20.1 5.717 27.06 8.576 6.97 2.68 13.05 7.146 18.23 13.4 5.36 6.074 8.13 14.293 8.31 24.656 0 8.754-2.51 16.616-7.51 23.584-4.82 6.789-11.88 12.149-21.17 16.08-9.11 3.93-19.74 5.896-31.892 5.896Zm253.002-98.624c10.9 2.322 19.65 7.772 26.26 16.348 6.61 8.397 9.92 18.045 9.92 28.944 0 15.722-5.54 28.229-16.62 37.52-10.9 9.112-26.17 13.668-45.83 13.668h-87.63V70.631h84.69c19.11 0 34.03 4.377 44.75 13.132 10.9 8.754 16.35 20.636 16.35 35.644 0 11.077-2.95 20.278-8.84 27.604-5.72 7.325-13.4 12.417-23.05 15.276Zm-68.07-15.544h30.01c7.51 0 13.22-1.608 17.15-4.824 4.11-3.395 6.17-8.308 6.17-14.74s-2.06-11.346-6.17-14.74c-3.93-3.395-9.64-5.092-17.15-5.092h-30.01v39.396Zm33.76 75.04c7.69 0 13.58-1.698 17.69-5.092 4.29-3.574 6.43-8.666 6.43-15.276 0-6.611-2.23-11.792-6.7-15.544-4.28-3.752-10.27-5.628-17.95-5.628h-33.23v41.54h33.76Zm116.97-128.104c-8.04 0-14.65-2.323-19.83-6.968-5.01-4.824-7.51-10.72-7.51-17.688 0-7.147 2.5-13.043 7.51-17.688 5.18-4.824 11.79-7.236 19.83-7.236 7.86 0 14.29 2.412 19.29 7.236 5.19 4.645 7.78 10.54 7.78 17.688 0 6.968-2.59 12.864-7.78 17.688-5 4.645-11.43 6.968-19.29 6.968Zm22.78 15.544v149.544h-45.83V109.223h45.83Zm113.41 110.684v38.86h-23.32c-16.61 0-29.57-4.02-38.86-12.06-9.29-8.219-13.93-21.53-13.93-39.932v-59.496h-18.23v-38.056h18.23V72.775h45.82v36.448h30.02v38.056h-30.02v60.032c0 4.466 1.08 7.682 3.22 9.648 2.14 1.965 5.72 2.948 10.72 2.948h16.35Zm13.26-35.912c0-15.544 3.13-29.123 9.38-40.736 6.44-11.614 15.28-20.547 26.54-26.8 11.43-6.254 24.47-9.38 39.12-9.38 18.76 0 34.4 4.913 46.9 14.74 12.69 9.826 21 23.673 24.93 41.54h-48.78c-4.11-11.435-12.06-17.152-23.85-17.152-8.4 0-15.1 3.305-20.1 9.916-5 6.432-7.5 15.722-7.5 27.872 0 12.149 2.5 21.529 7.5 28.14 5 6.432 11.7 9.648 20.1 9.648 11.79 0 19.74-5.718 23.85-17.152h48.78c-3.93 17.509-12.24 31.266-24.93 41.272-12.68 10.005-28.31 15.008-46.9 15.008-14.65 0-27.69-3.127-39.12-9.38-11.26-6.254-20.1-15.187-26.54-26.8-6.25-11.614-9.38-25.192-9.38-40.736Zm236.3 76.916c-14.65 0-27.87-3.127-39.66-9.38-11.61-6.254-20.81-15.187-27.6-26.8-6.61-11.614-9.92-25.192-9.92-40.736 0-15.366 3.4-28.855 10.18-40.468 6.79-11.792 16.08-20.815 27.88-27.068 11.79-6.254 25.01-9.38 39.66-9.38 14.65 0 27.87 3.126 39.66 9.38 11.8 6.253 21.09 15.276 27.88 27.068 6.79 11.613 10.18 25.102 10.18 40.468 0 15.365-3.48 28.944-10.45 40.736-6.79 11.613-16.17 20.546-28.14 26.8-11.79 6.253-25.01 9.38-39.67 9.38Zm0-39.664c8.76 0 16.17-3.216 22.25-9.648 6.25-6.432 9.38-15.634 9.38-27.604 0-11.971-3.04-21.172-9.11-27.604-5.9-6.432-13.22-9.648-21.98-9.648-8.93 0-16.35 3.216-22.24 9.648-5.9 6.253-8.85 15.454-8.85 27.604 0 11.97 2.86 21.172 8.58 27.604 5.89 6.432 13.22 9.648 21.97 9.648Zm122.47-127.568c-8.04 0-14.65-2.323-19.83-6.968-5-4.824-7.5-10.72-7.5-17.688 0-7.147 2.5-13.043 7.5-17.688 5.18-4.824 11.79-7.236 19.83-7.236 7.86 0 14.3 2.412 19.3 7.236 5.18 4.645 7.77 10.54 7.77 17.688 0 6.968-2.59 12.864-7.77 17.688-5 4.645-11.44 6.968-19.3 6.968Zm22.78 15.544v149.544h-45.83V109.223h45.83Zm121.18-1.608c17.51 0 31.45 5.717 41.81 17.152 10.54 11.256 15.81 26.8 15.81 46.632v87.368h-45.56v-81.204c0-10.006-2.59-17.778-7.77-23.316-5.18-5.539-12.15-8.308-20.9-8.308-8.76 0-15.72 2.769-20.91 8.308-5.18 5.538-7.77 13.31-7.77 23.316v81.204h-45.83V109.223h45.83v19.832c4.65-6.611 10.9-11.792 18.76-15.544 7.86-3.931 16.71-5.896 26.53-5.896Zm283.34 23.584c0 10.898-2.5 20.904-7.5 30.016-5 8.933-12.68 16.169-23.05 21.708-10.36 5.538-23.22 8.308-38.59 8.308h-28.41v67.536h-45.83V70.631h74.24c15.01 0 27.69 2.59 38.06 7.772 10.36 5.18 18.13 12.328 23.31 21.44 5.18 9.112 7.77 19.564 7.77 31.356Zm-72.62 23.584c8.75 0 15.27-2.055 19.56-6.164 4.29-4.11 6.43-9.916 6.43-17.42 0-7.504-2.14-13.311-6.43-17.42-4.29-4.11-10.81-6.164-19.56-6.164h-24.93v47.168h24.93Zm84.22 28.944c0-15.366 2.86-28.855 8.58-40.468 5.89-11.614 13.84-20.547 23.85-26.8 10.01-6.254 21.17-9.38 33.5-9.38 10.54 0 19.74 2.144 27.6 6.432 8.04 4.288 14.21 9.916 18.5 16.884v-21.172h45.82v149.544h-45.82v-21.172c-4.47 6.968-10.72 12.596-18.76 16.884-7.87 4.288-17.07 6.432-27.61 6.432-12.15 0-23.22-3.127-33.23-9.38-10.01-6.432-17.96-15.455-23.85-27.068-5.72-11.792-8.58-25.371-8.58-40.736Zm112.03.268c0-11.435-3.22-20.458-9.65-27.068-6.26-6.611-13.94-9.916-23.05-9.916-9.11 0-16.88 3.305-23.32 9.916-6.25 6.432-9.38 15.365-9.38 26.8 0 11.434 3.13 20.546 9.38 27.336 6.44 6.61 14.21 9.916 23.32 9.916s16.79-3.306 23.05-9.916c6.43-6.611 9.65-15.634 9.65-27.068Zm228.59-74.772-93.8 220.564h-49.31l34.3-76.112-60.83-144.452h51.18l34.58 93.532 34.3-93.532h49.58Z" fill="#2F3542"/></g><defs><clipPath id="a"><path fill="#fff" d="M0 0h2618v330H0z"/></clipPath><clipPath id="b"><rect y="43" width="244" height="244" rx="64" fill="#fff"/></clipPath></defs></svg>

<svg width="2618" height="330" viewBox="0 0 2618 330" fill="none" xmlns="http://www.w3.org/2000/svg">
<g clip-path="url(#clip0_202_2)">
<g clip-path="url(#clip1_202_2)">
<path d="M0 43H244V287H0V43Z" fill="#FE0400"/>
<path d="M99.125 88.75H144.875V142.125H198.25V187.875H144.875V241.25H99.125V187.875H45.75V142.125H99.125V88.75Z" fill="white"/>
</g>
<path d="M388.172 260.643C374.415 260.643 362.087 258.409 351.188 253.943C340.29 249.476 331.535 242.865 324.924 234.111C318.492 225.356 315.098 214.815 314.74 202.487H363.516C364.231 209.455 366.643 214.815 370.752 218.567C374.862 222.14 380.222 223.927 386.832 223.927C393.622 223.927 398.982 222.408 402.912 219.371C406.843 216.155 408.808 211.777 408.808 206.239C408.808 201.593 407.2 197.752 403.984 194.715C400.947 191.677 397.106 189.176 392.46 187.211C387.994 185.245 381.562 183.012 373.164 180.511C361.015 176.759 351.099 173.007 343.416 169.255C335.734 165.503 329.123 159.964 323.584 152.639C318.046 145.313 315.276 135.755 315.276 123.963C315.276 106.453 321.619 92.7853 334.304 82.9586C346.99 72.9533 363.516 67.9506 383.884 67.9506C404.61 67.9506 421.315 72.9533 434 82.9586C446.686 92.7853 453.475 106.543 454.368 124.231H404.788C404.431 118.156 402.198 113.421 398.088 110.027C393.979 106.453 388.708 104.667 382.276 104.667C376.738 104.667 372.271 106.185 368.876 109.223C365.482 112.081 363.784 116.28 363.784 121.819C363.784 127.893 366.643 132.628 372.36 136.023C378.078 139.417 387.011 143.08 399.16 147.011C411.31 151.12 421.136 155.051 428.64 158.803C436.323 162.555 442.934 168.004 448.472 175.151C454.011 182.297 456.78 191.499 456.78 202.755C456.78 213.475 454.011 223.212 448.472 231.967C443.112 240.721 435.251 247.689 424.888 252.871C414.526 258.052 402.287 260.643 388.172 260.643ZM696.502 109.223L656.034 258.767H605.382L581.798 161.751L557.41 258.767H507.026L466.29 109.223H512.118L533.29 216.155L558.482 109.223H606.99L632.45 215.619L653.354 109.223H696.502ZM733.878 93.6786C725.838 93.6786 719.227 91.3559 714.046 86.7106C709.043 81.8866 706.542 75.9906 706.542 69.0226C706.542 61.8759 709.043 55.9799 714.046 51.3346C719.227 46.5106 725.838 44.0986 733.878 44.0986C741.739 44.0986 748.171 46.5106 753.174 51.3346C758.355 55.9799 760.946 61.8759 760.946 69.0226C760.946 75.9906 758.355 81.8866 753.174 86.7106C748.171 91.3559 741.739 93.6786 733.878 93.6786ZM756.658 109.223V258.767H710.83V109.223H756.658ZM847.556 260.911C834.513 260.911 822.9 258.677 812.716 254.211C802.532 249.744 794.492 243.669 788.596 235.987C782.7 228.125 779.394 219.371 778.68 209.723H823.972C824.508 214.904 826.92 219.103 831.208 222.319C835.496 225.535 840.766 227.143 847.02 227.143C852.737 227.143 857.114 226.071 860.152 223.927C863.368 221.604 864.976 218.656 864.976 215.083C864.976 210.795 862.742 207.668 858.276 205.703C853.809 203.559 846.573 201.236 836.568 198.735C825.848 196.233 816.914 193.643 809.768 190.963C802.621 188.104 796.457 183.727 791.276 177.831C786.094 171.756 783.504 163.627 783.504 153.443C783.504 144.867 785.826 137.095 790.472 130.127C795.296 122.98 802.264 117.352 811.376 113.243C820.666 109.133 831.654 107.079 844.34 107.079C863.1 107.079 877.84 111.724 888.56 121.015C899.458 130.305 905.712 142.633 907.32 157.999H864.976C864.261 152.817 861.938 148.708 858.008 145.671C854.256 142.633 849.253 141.115 843 141.115C837.64 141.115 833.53 142.187 830.672 144.331C827.813 146.296 826.384 149.065 826.384 152.639C826.384 156.927 828.617 160.143 833.084 162.287C837.729 164.431 844.876 166.575 854.524 168.719C865.601 171.577 874.624 174.436 881.592 177.295C888.56 179.975 894.634 184.441 899.816 190.695C905.176 196.769 907.945 204.988 908.124 215.351C908.124 224.105 905.622 231.967 900.62 238.935C895.796 245.724 888.738 251.084 879.448 255.015C870.336 258.945 859.705 260.911 847.556 260.911ZM993.848 260.911C980.806 260.911 969.192 258.677 959.008 254.211C948.824 249.744 940.784 243.669 934.888 235.987C928.992 228.125 925.687 219.371 924.972 209.723H970.264C970.8 214.904 973.212 219.103 977.5 222.319C981.788 225.535 987.059 227.143 993.312 227.143C999.03 227.143 1003.41 226.071 1006.44 223.927C1009.66 221.604 1011.27 218.656 1011.27 215.083C1011.27 210.795 1009.03 207.668 1004.57 205.703C1000.1 203.559 992.866 201.236 982.86 198.735C972.14 196.233 963.207 193.643 956.06 190.963C948.914 188.104 942.75 183.727 937.568 177.831C932.387 171.756 929.796 163.627 929.796 153.443C929.796 144.867 932.119 137.095 936.764 130.127C941.588 122.98 948.556 117.352 957.668 113.243C966.959 109.133 977.947 107.079 990.632 107.079C1009.39 107.079 1024.13 111.724 1034.85 121.015C1045.75 130.305 1052 142.633 1053.61 157.999H1011.27C1010.55 152.817 1008.23 148.708 1004.3 145.671C1000.55 142.633 995.546 141.115 989.292 141.115C983.932 141.115 979.823 142.187 976.964 144.331C974.106 146.296 972.676 149.065 972.676 152.639C972.676 156.927 974.91 160.143 979.376 162.287C984.022 164.431 991.168 166.575 1000.82 168.719C1011.89 171.577 1020.92 174.436 1027.88 177.295C1034.85 179.975 1040.93 184.441 1046.11 190.695C1051.47 196.769 1054.24 204.988 1054.42 215.351C1054.42 224.105 1051.91 231.967 1046.91 238.935C1042.09 245.724 1035.03 251.084 1025.74 255.015C1016.63 258.945 1006 260.911 993.848 260.911ZM1246.85 162.287C1257.75 164.609 1266.5 170.059 1273.11 178.635C1279.72 187.032 1283.03 196.68 1283.03 207.579C1283.03 223.301 1277.49 235.808 1266.41 245.099C1255.51 254.211 1240.24 258.767 1220.58 258.767H1132.95V70.6306H1217.64C1236.75 70.6306 1251.67 75.0079 1262.39 83.7626C1273.29 92.5173 1278.74 104.399 1278.74 119.407C1278.74 130.484 1275.79 139.685 1269.9 147.011C1264.18 154.336 1256.5 159.428 1246.85 162.287ZM1178.78 146.743H1208.79C1216.3 146.743 1222.01 145.135 1225.94 141.919C1230.05 138.524 1232.11 133.611 1232.11 127.179C1232.11 120.747 1230.05 115.833 1225.94 112.439C1222.01 109.044 1216.3 107.347 1208.79 107.347H1178.78V146.743ZM1212.54 221.783C1220.23 221.783 1226.12 220.085 1230.23 216.691C1234.52 213.117 1236.66 208.025 1236.66 201.415C1236.66 194.804 1234.43 189.623 1229.96 185.871C1225.68 182.119 1219.69 180.243 1212.01 180.243H1178.78V221.783H1212.54ZM1329.51 93.6786C1321.47 93.6786 1314.86 91.3559 1309.68 86.7106C1304.67 81.8866 1302.17 75.9906 1302.17 69.0226C1302.17 61.8759 1304.67 55.9799 1309.68 51.3346C1314.86 46.5106 1321.47 44.0986 1329.51 44.0986C1337.37 44.0986 1343.8 46.5106 1348.8 51.3346C1353.99 55.9799 1356.58 61.8759 1356.58 69.0226C1356.58 75.9906 1353.99 81.8866 1348.8 86.7106C1343.8 91.3559 1337.37 93.6786 1329.51 93.6786ZM1352.29 109.223V258.767H1306.46V109.223H1352.29ZM1465.7 219.907V258.767H1442.38C1425.77 258.767 1412.81 254.747 1403.52 246.707C1394.23 238.488 1389.59 225.177 1389.59 206.775V147.279H1371.36V109.223H1389.59V72.7746H1435.41V109.223H1465.43V147.279H1435.41V207.311C1435.41 211.777 1436.49 214.993 1438.63 216.959C1440.77 218.924 1444.35 219.907 1449.35 219.907H1465.7ZM1478.96 183.995C1478.96 168.451 1482.09 154.872 1488.34 143.259C1494.78 131.645 1503.62 122.712 1514.88 116.459C1526.31 110.205 1539.35 107.079 1554 107.079C1572.76 107.079 1588.4 111.992 1600.9 121.819C1613.59 131.645 1621.9 145.492 1625.83 163.359H1577.05C1572.94 151.924 1564.99 146.207 1553.2 146.207C1544.8 146.207 1538.1 149.512 1533.1 156.123C1528.1 162.555 1525.6 171.845 1525.6 183.995C1525.6 196.144 1528.1 205.524 1533.1 212.135C1538.1 218.567 1544.8 221.783 1553.2 221.783C1564.99 221.783 1572.94 216.065 1577.05 204.631H1625.83C1621.9 222.14 1613.59 235.897 1600.9 245.903C1588.22 255.908 1572.59 260.911 1554 260.911C1539.35 260.911 1526.31 257.784 1514.88 251.531C1503.62 245.277 1494.78 236.344 1488.34 224.731C1482.09 213.117 1478.96 199.539 1478.96 183.995ZM1715.26 260.911C1700.61 260.911 1687.39 257.784 1675.6 251.531C1663.99 245.277 1654.79 236.344 1648 224.731C1641.39 213.117 1638.08 199.539 1638.08 183.995C1638.08 168.629 1641.48 155.14 1648.26 143.527C1655.05 131.735 1664.34 122.712 1676.14 116.459C1687.93 110.205 1701.15 107.079 1715.8 107.079C1730.45 107.079 1743.67 110.205 1755.46 116.459C1767.26 122.712 1776.55 131.735 1783.34 143.527C1790.13 155.14 1793.52 168.629 1793.52 183.995C1793.52 199.36 1790.04 212.939 1783.07 224.731C1776.28 236.344 1766.9 245.277 1754.93 251.531C1743.14 257.784 1729.92 260.911 1715.26 260.911ZM1715.26 221.247C1724.02 221.247 1731.43 218.031 1737.51 211.599C1743.76 205.167 1746.89 195.965 1746.89 183.995C1746.89 172.024 1743.85 162.823 1737.78 156.391C1731.88 149.959 1724.56 146.743 1715.8 146.743C1706.87 146.743 1699.45 149.959 1693.56 156.391C1687.66 162.644 1684.71 171.845 1684.71 183.995C1684.71 195.965 1687.57 205.167 1693.29 211.599C1699.18 218.031 1706.51 221.247 1715.26 221.247ZM1837.73 93.6786C1829.69 93.6786 1823.08 91.3559 1817.9 86.7106C1812.9 81.8866 1810.4 75.9906 1810.4 69.0226C1810.4 61.8759 1812.9 55.9799 1817.9 51.3346C1823.08 46.5106 1829.69 44.0986 1837.73 44.0986C1845.59 44.0986 1852.03 46.5106 1857.03 51.3346C1862.21 55.9799 1864.8 61.8759 1864.8 69.0226C1864.8 75.9906 1862.21 81.8866 1857.03 86.7106C1852.03 91.3559 1845.59 93.6786 1837.73 93.6786ZM1860.51 109.223V258.767H1814.68V109.223H1860.51ZM1981.69 107.615C1999.2 107.615 2013.14 113.332 2023.5 124.767C2034.04 136.023 2039.31 151.567 2039.31 171.399V258.767H1993.75V177.563C1993.75 167.557 1991.16 159.785 1985.98 154.247C1980.8 148.708 1973.83 145.939 1965.08 145.939C1956.32 145.939 1949.36 148.708 1944.17 154.247C1938.99 159.785 1936.4 167.557 1936.4 177.563V258.767H1890.57V109.223H1936.4V129.055C1941.05 122.444 1947.3 117.263 1955.16 113.511C1963.02 109.58 1971.87 107.615 1981.69 107.615ZM2265.03 131.199C2265.03 142.097 2262.53 152.103 2257.53 161.215C2252.53 170.148 2244.85 177.384 2234.48 182.923C2224.12 188.461 2211.26 191.231 2195.89 191.231H2167.48V258.767H2121.65V70.6306H2195.89C2210.9 70.6306 2223.58 73.2213 2233.95 78.4026C2244.31 83.5839 2252.08 90.7306 2257.26 99.8426C2262.44 108.955 2265.03 119.407 2265.03 131.199ZM2192.41 154.783C2201.16 154.783 2207.68 152.728 2211.97 148.619C2216.26 144.509 2218.4 138.703 2218.4 131.199C2218.4 123.695 2216.26 117.888 2211.97 113.779C2207.68 109.669 2201.16 107.615 2192.41 107.615H2167.48V154.783H2192.41ZM2276.63 183.727C2276.63 168.361 2279.49 154.872 2285.21 143.259C2291.1 131.645 2299.05 122.712 2309.06 116.459C2319.07 110.205 2330.23 107.079 2342.56 107.079C2353.1 107.079 2362.3 109.223 2370.16 113.511C2378.2 117.799 2384.37 123.427 2388.66 130.395V109.223H2434.48V258.767H2388.66V237.595C2384.19 244.563 2377.94 250.191 2369.9 254.479C2362.03 258.767 2352.83 260.911 2342.29 260.911C2330.14 260.911 2319.07 257.784 2309.06 251.531C2299.05 245.099 2291.1 236.076 2285.21 224.463C2279.49 212.671 2276.63 199.092 2276.63 183.727ZM2388.66 183.995C2388.66 172.56 2385.44 163.537 2379.01 156.927C2372.75 150.316 2365.07 147.011 2355.96 147.011C2346.85 147.011 2339.08 150.316 2332.64 156.927C2326.39 163.359 2323.26 172.292 2323.26 183.727C2323.26 195.161 2326.39 204.273 2332.64 211.063C2339.08 217.673 2346.85 220.979 2355.96 220.979C2365.07 220.979 2372.75 217.673 2379.01 211.063C2385.44 204.452 2388.66 195.429 2388.66 183.995ZM2617.25 109.223L2523.45 329.787H2474.14L2508.44 253.675L2447.61 109.223H2498.79L2533.37 202.755L2567.67 109.223H2617.25Z" fill="#2F3542"/>
</g>
<defs>
<clipPath id="clip0_202_2">
<rect width="2618" height="330" fill="white"/>
</clipPath>
<clipPath id="clip1_202_2">
<rect y="43" width="244" height="244" rx="64" fill="white"/>
</clipPath>
</defs>
</svg>
